;FLAVOR:Marlin
;TIME:9915
;Filament used: 6.53934m
;Layer height: 0.2
;MINX:56.913
;MINY:56.907
;MINZ:0.2
;MAXX:173.091
;MAXY:173.087
;MAXZ:10
;TARGET_MACHINE.NAME:Creality Ender-3 v2 Neo
;Generated with Cura_SteamEngine 5.10.0
M140 S60
M105
M190 S60
M104 S200
M105
M109 S200
G92 E0 ;Reset Extruder
G28 ;Home
G1 Z2.0 F3000 ;Move Z Axis up
G1 X10.1 Y20 Z0.28 F5000.0 ;Move to start position
G1 X10.1 Y200.0 Z0.28 F1500.0 E15 ;Draw the first line
G1 X10.4 Y200.0 Z0.28 F5000.0 ;Move to side a little
G1 X10.4 Y20 Z0.28 F1500.0 E30 ;Draw the second line
G92 E0 ;Reset Extruder
G1 Z2.0 F3000 ;Move Z Axis up
M82 ;absolute extrusion mode
G92 E0
G92 E0
G1 F1500 E-4
;LAYER_COUNT:50
;LAYER:0
M107
G0 F6000 X73.958 Y73.893 Z0.2
;TYPE:SKIRT
G1 F1500 E0
G1 F1200 X74.841 Y73.026 E0.04116
G1 X75.955 Y71.992 E0.09171
G1 X76.969 Y71.087 E0.13692
G1 X78.163 Y70.082 E0.18882
G1 X79.244 Y69.208 E0.23506
G1 X80.481 Y68.271 E0.28667
G1 X81.504 Y67.53 E0.32869
G1 X82.692 Y66.722 E0.37647
G1 X83.928 Y65.916 E0.42555
G1 X85.154 Y65.164 E0.47339
G1 X86.423 Y64.419 E0.52233
G1 X87.618 Y63.766 E0.56762
G1 X88.799 Y63.148 E0.61196
G1 X90.232 Y62.454 E0.66491
G1 X91.481 Y61.881 E0.71062
G1 X93.395 Y61.067 E0.7798
G1 X94.138 Y60.766 E0.80646
G1 X94.555 Y60.608 E0.82129
G1 X96.451 Y59.937 E0.88819
G1 X98.413 Y59.324 E0.95655
G1 X99.586 Y58.986 E0.99715
G1 X101.119 Y58.591 E1.04981
G1 X102.412 Y58.284 E1.09401
G1 X103.789 Y58.001 E1.14076
G1 X105.167 Y57.744 E1.18739
G1 X106.858 Y57.484 E1.24429
G1 X108.095 Y57.318 E1.2858
G1 X109.591 Y57.161 E1.33583
G1 X110.976 Y57.044 E1.38206
G1 X112.507 Y56.96 E1.43306
G1 X113.782 Y56.916 E1.47549
G1 X115.179 Y56.907 E1.52196
G1 X116.649 Y56.926 E1.57085
G1 X118.242 Y56.996 E1.62389
G1 X119.492 Y57.076 E1.66555
G1 X120.969 Y57.213 E1.71488
G1 X122.356 Y57.37 E1.76131
G1 X124.093 Y57.622 E1.81969
G1 X125.428 Y57.844 E1.8647
G1 X126.583 Y58.071 E1.90385
G1 X127.949 Y58.364 E1.95032
G1 X129.429 Y58.725 E2.00099
G1 X130.734 Y59.074 E2.04592
G1 X132.395 Y59.57 E2.10357
G1 X133.608 Y59.962 E2.14597
G1 X135.088 Y60.487 E2.1982
G1 X136.272 Y60.936 E2.24032
G1 X137.749 Y61.545 E2.29345
G1 X138.914 Y62.054 E2.33574
G1 X140.351 Y62.729 E2.38854
G1 X141.495 Y63.295 E2.431
G1 X142.964 Y64.079 E2.48638
G1 X143.987 Y64.651 E2.52536
G1 X145.226 Y65.391 E2.57336
G1 X146.475 Y66.169 E2.6223
G1 X147.874 Y67.103 E2.67825
G1 X148.907 Y67.823 E2.72013
G1 X150.014 Y68.643 E2.76595
G1 X151.095 Y69.476 E2.81134
G1 X152.399 Y70.546 E2.86744
G1 X153.402 Y71.405 E2.91137
G1 X154.418 Y72.327 E2.957
G1 X155.428 Y73.277 E3.00312
G1 X156.504 Y74.353 E3.05373
G1 X157.471 Y75.358 E3.10012
G1 X158.459 Y76.45 E3.1491
G1 X159.432 Y77.569 E3.19842
G1 X160.444 Y78.808 E3.25162
G1 X161.197 Y79.769 E3.29223
G1 X162.12 Y81.017 E3.34386
G1 X162.833 Y82.027 E3.38498
G1 X163.778 Y83.448 E3.44174
G1 X164.469 Y84.537 E3.48463
G1 X165.184 Y85.738 E3.53112
G1 X165.868 Y86.935 E3.57698
G1 X166.595 Y88.305 E3.62856
G1 X167.238 Y89.579 E3.67603
G1 X167.819 Y90.816 E3.72148
G1 X168.38 Y92.073 E3.76726
G1 X168.944 Y93.442 E3.81651
G1 X169.465 Y94.785 E3.86442
G1 X169.951 Y96.156 E3.9128
G1 X170.402 Y97.521 E3.96062
G1 X170.859 Y99.049 E4.01366
G1 X171.203 Y100.301 E4.05685
G1 X171.585 Y101.854 E4.11004
G1 X171.855 Y103.058 E4.15108
G1 X172.171 Y104.707 E4.20692
G1 X172.383 Y105.946 E4.24873
G1 X172.582 Y107.329 E4.2952
G1 X172.749 Y108.67 E4.34015
G1 X172.911 Y110.4 E4.39794
G1 X172.993 Y111.542 E4.43602
G1 X173.064 Y113.212 E4.49162
G1 X173.091 Y114.509 E4.53476
G1 X173.079 Y116.109 E4.58798
G1 X173.05 Y117.144 E4.62242
G1 X172.954 Y118.988 E4.68383
G1 X172.855 Y120.251 E4.72597
G1 X172.702 Y121.697 E4.77433
G1 X172.533 Y123.044 E4.81949
G1 X172.281 Y124.661 E4.87392
G1 X172.081 Y125.798 E4.91231
G1 X171.743 Y127.512 E4.97042
G1 X171.612 Y128.101 E4.99049
G1 X171.067 Y130.196 E5.06249
G1 X170.704 Y131.486 E5.10706
G1 X170.265 Y132.885 E5.15583
G1 X169.799 Y134.277 E5.20465
G1 X169.255 Y135.757 E5.2571
G1 X168.816 Y136.878 E5.29714
G1 X168.161 Y138.415 E5.35271
G1 X167.644 Y139.562 E5.39455
G1 X167.033 Y140.827 E5.44128
G1 X166.4 Y142.071 E5.4877
G1 X165.592 Y143.545 E5.54361
G1 X164.976 Y144.615 E5.58467
G1 X164.059 Y146.103 E5.64281
G1 X163.41 Y147.109 E5.68263
G1 X162.42 Y148.548 E5.74072
G1 X161.697 Y149.553 E5.7819
G1 X160.845 Y150.67 E5.82862
G1 X160.232 Y151.45 E5.86162
G1 X159.011 Y152.911 E5.92495
G1 X158.205 Y153.832 E5.96566
G1 X157.038 Y155.086 E6.02263
G1 X156.167 Y155.984 E6.06424
G1 X155.132 Y156.993 E6.11231
G1 X154.13 Y157.931 E6.15797
G1 X152.898 Y159.015 E6.21255
G1 X151.887 Y159.87 E6.25658
G1 X150.729 Y160.798 E6.30594
G1 X149.777 Y161.529 E6.34586
G1 X148.522 Y162.436 E6.39736
G1 X147.319 Y163.266 E6.44597
G1 X145.93 Y164.165 E6.50101
G1 X144.777 Y164.878 E6.54609
G1 X143.585 Y165.569 E6.59192
G1 X142.494 Y166.173 E6.6334
G1 X140.966 Y166.958 E6.69053
G1 X139.821 Y167.517 E6.73291
G1 X138.339 Y168.189 E6.78703
G1 X137.151 Y168.697 E6.83001
G1 X135.703 Y169.27 E6.8818
G1 X134.603 Y169.682 E6.92087
G1 X133.189 Y170.162 E6.97054
G1 X131.752 Y170.62 E7.0207
G1 X130.393 Y171.009 E7.06772
G1 X129.069 Y171.36 E7.11327
G1 X127.399 Y171.748 E7.1703
G1 X126.221 Y171.994 E7.21032
G1 X124.542 Y172.296 E7.26706
G1 X123.371 Y172.482 E7.3065
G1 X121.769 Y172.689 E7.36022
G1 X120.472 Y172.829 E7.40361
G1 X118.916 Y172.952 E7.45553
G1 X117.722 Y173.024 E7.49531
G1 X116.05 Y173.074 E7.55095
G1 X114.787 Y173.087 E7.59296
G1 X113.164 Y173.056 E7.64695
G1 X111.931 Y173.007 E7.68799
G1 X110.428 Y172.902 E7.7381
G1 X109.081 Y172.783 E7.78308
G1 X107.633 Y172.612 E7.83157
G1 X106.2 Y172.415 E7.87968
G1 X104.483 Y172.123 E7.93761
G1 X103.644 Y171.966 E7.966
G1 X101.82 Y171.568 E8.0281
G1 X100.484 Y171.245 E8.07381
G1 X99.102 Y170.868 E8.12146
G1 X97.889 Y170.51 E8.16352
G1 X96.422 Y170.032 E8.21484
G1 X95.034 Y169.547 E8.26374
G1 X93.54 Y168.974 E8.31696
G1 X92.458 Y168.533 E8.35582
G1 X90.927 Y167.862 E8.41142
G1 X89.834 Y167.352 E8.45154
G1 X88.501 Y166.684 E8.50113
G1 X87.204 Y166.002 E8.54987
G1 X85.828 Y165.227 E8.60239
G1 X84.773 Y164.602 E8.64318
G1 X83.524 Y163.815 E8.69228
G1 X82.283 Y162.995 E8.74175
G1 X80.969 Y162.071 E8.79518
G1 X80.039 Y161.389 E8.83353
G1 X78.893 Y160.496 E8.88186
G1 X77.677 Y159.507 E8.93399
G1 X76.525 Y158.516 E8.98453
G1 X75.654 Y157.734 E9.02346
G1 X74.404 Y156.543 E9.08089
G1 X73.486 Y155.63 E9.12395
G1 X72.468 Y154.558 E9.17312
G1 X71.571 Y153.578 E9.21731
G1 X70.609 Y152.459 E9.26639
G1 X69.667 Y151.32 E9.31555
G1 X68.707 Y150.084 E9.3676
G1 X68.193 Y149.403 E9.39598
G1 X67.058 Y147.793 E9.4615
G1 X66.331 Y146.711 E9.50485
G1 X65.474 Y145.348 E9.5584
G1 X64.826 Y144.269 E9.60027
G1 X64.132 Y143.039 E9.64724
G1 X63.446 Y141.767 E9.69531
G1 X62.739 Y140.35 E9.74798
G1 X62.322 Y139.48 E9.78007
G1 X61.53 Y137.685 E9.84532
G1 X61.056 Y136.546 E9.88635
G1 X60.454 Y134.968 E9.94253
G1 X60.057 Y133.855 E9.98183
G1 X59.543 Y132.283 E10.03684
G1 X59.205 Y131.162 E10.07578
G1 X58.76 Y129.515 E10.13253
G1 X58.448 Y128.259 E10.17557
G1 X58.138 Y126.838 E10.22394
G1 X57.858 Y125.437 E10.27146
G1 X57.627 Y124.075 E10.31741
G1 X57.431 Y122.739 E10.36232
G1 X57.231 Y121.038 E10.41929
G1 X57.106 Y119.74 E10.46266
G1 X56.998 Y118.159 E10.51536
G1 X56.946 Y117.025 E10.55312
G1 X56.913 Y114.946 E10.62228
G1 X56.931 Y113.77 E10.6614
G1 X56.967 Y112.492 E10.70392
G1 X57.022 Y111.392 E10.74055
G1 X57.17 Y109.536 E10.80248
G1 X57.297 Y108.295 E10.84397
G1 X57.502 Y106.732 E10.8964
G1 X57.682 Y105.54 E10.9365
G1 X57.993 Y103.838 E10.99404
G1 X58.23 Y102.675 E11.03352
G1 X58.562 Y101.251 E11.08215
G1 X58.909 Y99.882 E11.12912
G1 X59.359 Y98.312 E11.18345
G1 X59.717 Y97.151 E11.22385
G1 X60.254 Y95.574 E11.27926
G1 X60.667 Y94.441 E11.31937
G1 X61.296 Y92.854 E11.37615
G1 X61.777 Y91.716 E11.41724
G1 X62.425 Y90.291 E11.46931
G1 X62.954 Y89.19 E11.50994
G1 X63.646 Y87.848 E11.56016
G1 X64.353 Y86.546 E11.60943
G1 X65.143 Y85.188 E11.66169
G1 X65.808 Y84.098 E11.70416
G1 X66.568 Y82.928 E11.75056
G1 X67.351 Y81.773 E11.79697
G1 X68.37 Y80.362 E11.85486
G1 X69.147 Y79.332 E11.89777
G1 X70.078 Y78.171 E11.94727
G1 X70.872 Y77.217 E11.98855
G1 X71.852 Y76.108 E12.03777
G1 X72.837 Y75.037 E12.08617
G1 X73.958 Y73.893 E12.13944
G0 F6000 X74.238 Y74.178
G1 F1200 X75.113 Y73.319 E12.18023
G1 X76.221 Y72.29 E12.23052
G1 X77.226 Y71.393 E12.27532
G1 X78.415 Y70.393 E12.327
G1 X79.486 Y69.527 E12.37281
G1 X80.716 Y68.595 E12.42413
G1 X81.729 Y67.861 E12.46574
G1 X82.911 Y67.057 E12.51329
G1 X84.137 Y66.257 E12.56198
G1 X85.357 Y65.509 E12.60957
G1 X86.615 Y64.77 E12.6581
G1 X87.803 Y64.12 E12.70314
G1 X88.973 Y63.508 E12.74706
G1 X90.399 Y62.818 E12.79975
G1 X91.638 Y62.249 E12.84509
G1 X93.545 Y61.438 E12.91402
G1 X94.28 Y61.14 E12.9404
G1 X94.689 Y60.985 E12.95495
G1 X96.57 Y60.319 E13.02131
G1 X98.524 Y59.708 E13.08941
G1 X99.686 Y59.373 E13.12963
G1 X101.211 Y58.98 E13.18201
G1 X102.493 Y58.676 E13.22583
G1 X103.862 Y58.394 E13.27232
G1 X105.228 Y58.139 E13.31854
G1 X106.911 Y57.88 E13.37517
G1 X108.137 Y57.716 E13.41631
G1 X109.625 Y57.56 E13.46608
G1 X111.01 Y57.443 E13.51231
G1 X112.521 Y57.36 E13.56264
G1 X113.785 Y57.316 E13.6047
G1 X115.174 Y57.307 E13.6509
G1 X116.632 Y57.326 E13.6994
G1 X118.217 Y57.395 E13.75217
G1 X119.455 Y57.474 E13.79343
G1 X120.924 Y57.61 E13.8425
G1 X122.299 Y57.766 E13.88852
G1 X124.027 Y58.017 E13.9466
G1 X125.351 Y58.237 E13.99124
G1 X126.499 Y58.462 E14.03015
G1 X127.854 Y58.753 E14.07624
G1 X129.334 Y59.114 E14.12691
G1 X130.619 Y59.457 E14.17115
G1 X132.272 Y59.951 E14.22853
G1 X133.474 Y60.339 E14.27054
G1 X134.946 Y60.861 E14.32248
G1 X136.12 Y61.306 E14.36424
G1 X137.589 Y61.911 E14.41708
G1 X138.744 Y62.416 E14.45901
G1 X140.174 Y63.087 E14.51155
G1 X141.307 Y63.648 E14.5536
G1 X142.769 Y64.428 E14.60871
G1 X143.782 Y64.995 E14.64732
G1 X145.014 Y65.73 E14.69504
G1 X146.253 Y66.502 E14.74359
G1 X147.645 Y67.431 E14.79925
G1 X148.669 Y68.145 E14.84077
G1 X149.77 Y68.96 E14.88633
G1 X150.841 Y69.785 E14.9313
G1 X152.139 Y70.85 E14.98714
G1 X153.133 Y71.701 E15.03066
G1 X154.144 Y72.618 E15.07606
G1 X155.145 Y73.56 E15.12178
G1 X156.216 Y74.63 E15.17213
G1 X157.174 Y75.626 E15.2181
G1 X158.157 Y76.712 E15.26682
G1 X159.122 Y77.822 E15.31574
G1 X160.129 Y79.055 E15.36868
G1 X160.875 Y80.007 E15.40891
G1 X161.793 Y81.248 E15.46025
G1 X162.5 Y82.249 E15.50101
G1 X163.44 Y83.662 E15.55746
G1 X164.125 Y84.742 E15.6
G1 X164.837 Y85.937 E15.64626
G1 X165.515 Y87.123 E15.6917
G1 X166.238 Y88.485 E15.74299
G1 X166.876 Y89.749 E15.79008
G1 X167.454 Y90.979 E15.83528
G1 X168.01 Y92.225 E15.88066
G1 X168.571 Y93.587 E15.92966
G1 X169.088 Y94.919 E15.97718
G1 X169.571 Y96.282 E16.02527
G1 X170.019 Y97.636 E16.07271
G1 X170.473 Y99.155 E16.12544
G1 X170.815 Y100.396 E16.16825
G1 X171.195 Y101.942 E16.2212
G1 X171.462 Y103.133 E16.2618
G1 X171.777 Y104.774 E16.31738
G1 X171.987 Y106.003 E16.35885
G1 X172.185 Y107.379 E16.40508
G1 X172.351 Y108.707 E16.4496
G1 X172.512 Y110.429 E16.50712
G1 X172.593 Y111.559 E16.5448
G1 X172.664 Y113.22 E16.6001
G1 X172.691 Y114.506 E16.64288
G1 X172.679 Y116.098 E16.69583
G1 X172.651 Y117.123 E16.72993
G1 X172.555 Y118.957 E16.79102
G1 X172.457 Y120.209 E16.83279
G1 X172.305 Y121.647 E16.88088
G1 X172.138 Y122.982 E16.92563
G1 X171.887 Y124.592 E16.97982
G1 X171.689 Y125.72 E17.01792
G1 X171.352 Y127.426 E17.07575
G1 X171.225 Y128 E17.09531
G1 X170.682 Y130.088 E17.16706
G1 X170.322 Y131.366 E17.21122
G1 X169.886 Y132.758 E17.25974
G1 X169.424 Y134.139 E17.30817
G1 X168.883 Y135.611 E17.36034
G1 X168.448 Y136.721 E17.39999
G1 X167.796 Y138.251 E17.4553
G1 X167.284 Y139.388 E17.49678
G1 X166.676 Y140.646 E17.54325
G1 X166.049 Y141.879 E17.58926
G1 X165.245 Y143.346 E17.6449
G1 X164.636 Y144.405 E17.68553
G1 X163.723 Y145.886 E17.7434
G1 X163.08 Y146.882 E17.78283
G1 X162.095 Y148.314 E17.84063
G1 X161.372 Y149.319 E17.88181
G1 X160.531 Y150.423 E17.92797
G1 X159.925 Y151.194 E17.96059
G1 X158.71 Y152.648 E18.02361
G1 X157.912 Y153.56 E18.06392
G1 X156.751 Y154.808 E18.12061
G1 X155.888 Y155.698 E18.16184
G1 X154.859 Y156.701 E18.20963
G1 X153.866 Y157.631 E18.25488
G1 X152.64 Y158.71 E18.30921
G1 X151.637 Y159.558 E18.35289
G1 X150.485 Y160.481 E18.40199
G1 X149.543 Y161.205 E18.4415
G1 X148.295 Y162.107 E18.49272
G1 X147.102 Y162.93 E18.54092
G1 X145.72 Y163.825 E18.59569
G1 X144.577 Y164.532 E18.64039
G1 X143.391 Y165.219 E18.68597
G1 X142.311 Y165.817 E18.72703
G1 X140.79 Y166.599 E18.78392
G1 X139.656 Y167.153 E18.82589
G1 X138.182 Y167.821 E18.87972
G1 X137.004 Y168.325 E18.92233
G1 X135.563 Y168.895 E18.97388
G1 X134.474 Y169.303 E19.01256
G1 X133.068 Y169.781 E19.06195
G1 X131.642 Y170.235 E19.11172
G1 X130.291 Y170.622 E19.15846
G1 X128.978 Y170.97 E19.20364
G1 X127.317 Y171.356 E19.26036
G1 X126.15 Y171.6 E19.30001
G1 X124.479 Y171.901 E19.35649
G1 X123.32 Y172.085 E19.39552
G1 X121.726 Y172.291 E19.44897
G1 X120.44 Y172.43 E19.492
G1 X118.892 Y172.553 E19.54364
G1 X117.71 Y172.624 E19.58303
G1 X116.042 Y172.675 E19.63853
G1 X114.795 Y172.687 E19.68001
G1 X113.18 Y172.656 E19.73374
G1 X111.959 Y172.608 E19.77438
G1 X110.463 Y172.504 E19.82425
G1 X109.128 Y172.386 E19.86883
G1 X107.687 Y172.216 E19.91709
G1 X106.267 Y172.021 E19.96476
G1 X104.557 Y171.73 E20.02246
G1 X103.729 Y171.575 E20.05047
G1 X101.914 Y171.179 E20.11226
G1 X100.589 Y170.859 E20.1576
G1 X99.215 Y170.484 E20.20497
G1 X98.013 Y170.13 E20.24664
G1 X96.554 Y169.654 E20.29769
G1 X95.177 Y169.173 E20.3462
G1 X93.691 Y168.604 E20.39913
G1 X92.619 Y168.167 E20.43763
G1 X91.096 Y167.499 E20.49294
G1 X90.013 Y166.994 E20.53269
G1 X88.687 Y166.33 E20.58201
G1 X87.4 Y165.654 E20.63036
G1 X86.032 Y164.883 E20.68259
G1 X84.986 Y164.264 E20.72302
G1 X83.744 Y163.481 E20.77185
G1 X82.513 Y162.668 E20.82092
G1 X81.206 Y161.749 E20.87406
G1 X80.285 Y161.073 E20.91206
G1 X79.139 Y160.18 E20.96038
G1 X77.938 Y159.204 E21.01185
G1 X76.792 Y158.218 E21.06213
G1 X75.93 Y157.444 E21.10066
G1 X74.686 Y156.259 E21.15781
G1 X73.776 Y155.354 E21.20049
G1 X72.763 Y154.288 E21.2494
G1 X71.874 Y153.317 E21.29319
G1 X70.917 Y152.204 E21.34201
G1 X69.983 Y151.075 E21.39075
G1 X69.026 Y149.843 E21.44263
G1 X68.52 Y149.172 E21.47059
G1 X67.39 Y147.57 E21.53579
G1 X66.67 Y146.498 E21.57874
G1 X65.817 Y145.142 E21.63202
G1 X65.174 Y144.072 E21.67354
G1 X64.484 Y142.849 E21.72025
G1 X63.804 Y141.588 E21.7679
G1 X63.1 Y140.177 E21.82034
G1 X62.688 Y139.318 E21.85203
G1 X61.899 Y137.532 E21.91697
G1 X61.43 Y136.403 E21.95763
G1 X60.831 Y134.833 E22.01352
G1 X60.437 Y133.731 E22.05245
G1 X59.926 Y132.167 E22.10717
G1 X59.591 Y131.058 E22.1457
G1 X59.148 Y129.419 E22.20217
G1 X58.839 Y128.174 E22.24484
G1 X58.53 Y126.76 E22.29298
G1 X58.252 Y125.37 E22.34013
G1 X58.023 Y124.017 E22.38577
G1 X57.828 Y122.692 E22.43031
G1 X57.629 Y121 E22.48698
G1 X57.505 Y119.713 E22.52998
G1 X57.398 Y118.14 E22.58242
G1 X57.346 Y117.019 E22.61974
G1 X57.313 Y114.952 E22.6885
G1 X57.331 Y113.781 E22.72745
G1 X57.367 Y112.512 E22.76968
G1 X57.421 Y111.424 E22.80591
G1 X57.568 Y109.577 E22.86753
G1 X57.694 Y108.347 E22.90866
G1 X57.898 Y106.792 E22.96082
G1 X58.078 Y105.6 E23.00092
G1 X58.385 Y103.918 E23.05778
G1 X58.62 Y102.766 E23.09689
G1 X58.95 Y101.349 E23.14528
G1 X59.293 Y99.992 E23.19183
G1 X59.741 Y98.43 E23.24588
G1 X60.096 Y97.28 E23.28591
G1 X60.63 Y95.711 E23.34104
G1 X61.039 Y94.588 E23.38079
G1 X61.664 Y93.01 E23.43724
G1 X62.141 Y91.882 E23.47797
G1 X62.786 Y90.464 E23.52978
G1 X63.31 Y89.373 E23.57004
G1 X63.998 Y88.039 E23.61996
G1 X64.699 Y86.747 E23.66885
G1 X65.485 Y85.396 E23.72084
G1 X66.143 Y84.316 E23.7629
